X: 597
T:Fantasia 8 Largo
M:4/4
L:1/16
C:Telemann
N:Posted to the woodenflute mailing list November 2002
Z:Clive Catterall
K:Eminor
e2EF GeAf Be^d2 z2 de|fBAc' GbFa Eg/2f/2e z fgB|
ca(fg) Bd'(fg) "p"ca(fg) Bd'(fg)|"f"Ac'Fc' Gb^cb dba2 z =cBA|
BagB DgfA G(f^e=e) (^d=d^cB)|F(b^a=a) (^g=gf)^a b2B^c dbe^c'|
fb^a2 z2 ab ^c'fec' db^c^c'|Bd'/2^c'/2b2 z c'd'A ^G=feb Ed'=c'b|
Ac'(^ga) z bc'=G F^cda D=c'ba|Gb(fg) z FGb FaEg BfGb|
FaEg Bf^Gb Ac'B^g caAa|^dBda z bgf gdeA B2Tf2|
eBGE z ^deg A=fde Gbde|"p"A=f^de Gbde "f"Fa^Da Eg^Ag|
Bgf2 z A^Gb Ac'Bb caAa|"p"^dBda z bgf gdeA B2Tf2|e4 z4 z8||

